X:328
T:Subsistence Existence
M:C|
C:© Paul Gitlitz  2011
K:Am
"Am"EAcf e2ce| "G"dedB "Am"cBce|"G"d2Bd "Am"c2ec|"E"BA^G=F EDCB,|!
"Am"A,CEA "E"BcBc|"Am"ABcA "E"E3A|"Dm"Bcde "F"f2^gf|"E"ecdB "Am"A4|!
"Am"EAcf "Am"e2ce| "G"dedB "Am"cBce|"G"d2Bd "Am"c2ec|"E"BA^G=F EDCB,|!
"Am"A,CEA "E"BcBc|"Am"ABcA "E"E3C|"Dm"B,CDE "F"F3A|"E"^GABc"Am"A3f|!
|:"Am"ecfc ecdf|"C"g_agf "E"edcB|"Am"cAdB cAde|"G"gfe^d "E"e4|!
"Dm"defa "G"gfed|"Am"cdef edcB|Acea "E"bc'ba|1^gabc' "F"a2gf:|2^gabc' "Am"a4|]
